packages/icons/raw/imported/DevicesMac.svg

<svg width="32" height="32" viewBox="0 0 32 32" fill="none" xmlns="http://www.w3.org/2000/svg">
<path d="M23.5 21.1154V20.6154V21.1154ZM8.5 21.1154V21.6154V21.1154ZM25.5 8.5H25H25.5ZM25.5 19.1154H26H25.5ZM6.5 8.50002H6H6.5ZM6.5 19.1154H7H6.5ZM23.5 6.5V7V6.5ZM8.5 6.50001L8.5 6.00001L8.5 6.50001ZM25.5 17.9615C25.7761 17.9615 26 17.7377 26 17.4615C26 17.1854 25.7761 16.9615 25.5 16.9615V17.9615ZM6.5 16.9615C6.22386 16.9615 6 17.1854 6 17.4615C6 17.7377 6.22386 17.9615 6.5 17.9615L6.5 16.9615ZM20.3846 26C20.6608 26 20.8846 25.7761 20.8846 25.5C20.8846 25.2239 20.6608 25 20.3846 25V26ZM11.6154 25C11.3392 25 11.1154 25.2239 11.1154 25.5C11.1154 25.7761 11.3392 26 11.6154 26V25ZM12.5769 25.5C12.5769 25.7761 12.8008 26 13.0769 26C13.3531 26 13.5769 25.7761 13.5769 25.5H12.5769ZM13.5769 21.1154C13.5769 20.8392 13.3531 20.6154 13.0769 20.6154C12.8008 20.6154 12.5769 20.8392 12.5769 21.1154H13.5769ZM18.4231 25.5C18.4231 25.7761 18.6469 26 18.9231 26C19.1992 26 19.4231 25.7761 19.4231 25.5H18.4231ZM19.4231 21.1154C19.4231 20.8392 19.1992 20.6154 18.9231 20.6154C18.6469 20.6154 18.4231 20.8392 18.4231 21.1154H19.4231ZM23.5 20.6154L8.5 20.6154V21.6154L23.5 21.6154V20.6154ZM25 8.5V19.1154H26V8.5H25ZM6 8.50002L6 19.1154H7L7 8.50002H6ZM23.5 6L8.5 6.00001L8.5 7.00001L23.5 7V6ZM26 8.5C26 7.11929 24.8807 6 23.5 6V7C24.3284 7 25 7.67157 25 8.5H26ZM7 8.50002C7 7.67159 7.67157 7.00002 8.5 7.00001L8.5 6.00001C7.11929 6.00002 6 7.1193 6 8.50002H7ZM8.5 20.6154C7.67157 20.6154 7 19.9438 7 19.1154H6C6 20.4961 7.11929 21.6154 8.5 21.6154V20.6154ZM23.5 21.6154C24.8807 21.6154 26 20.4961 26 19.1154H25C25 19.9438 24.3284 20.6154 23.5 20.6154V21.6154ZM25.5 16.9615L6.5 16.9615L6.5 17.9615L25.5 17.9615V16.9615ZM20.3846 25H11.6154V26H20.3846V25ZM13.5769 25.5V21.1154H12.5769V25.5H13.5769ZM19.4231 25.5V21.1154H18.4231V25.5H19.4231Z" fill="black"/>
</svg>

<svg width="32" height="32" fill="none" xmlns="http://www.w3.org/2000/svg"><path d="M23.5 21.115v-.5.5Zm-15 0v.5-.5ZM25.5 8.5H25h.5Zm0 10.615h.5-.5ZM6.5 8.5H6h.5Zm0 10.615H7h-.5ZM23.5 6.5V7v-.5Zm-15 0V6v.5Zm17 11.462a.5.5 0 1 0 0-1v1Zm-19-1a.5.5 0 0 0 0 1v-1ZM20.385 26a.5.5 0 1 0 0-1v1Zm-8.77-1a.5.5 0 1 0 0 1v-1Zm.962.5a.5.5 0 0 0 1 0h-1Zm1-4.385a.5.5 0 1 0-1 0h1Zm4.846 4.385a.5.5 0 1 0 1 0h-1Zm1-4.385a.5.5 0 1 0-1 0h1Zm4.077-.5h-15v1h15v-1ZM25 8.5v10.615h1V8.5h-1Zm-19 0v10.615h1V8.5H6ZM23.5 6h-15v1h15V6ZM26 8.5A2.5 2.5 0 0 0 23.5 6v1A1.5 1.5 0 0 1 25 8.5h1Zm-19 0A1.5 1.5 0 0 1 8.5 7V6A2.5 2.5 0 0 0 6 8.5h1Zm1.5 12.115a1.5 1.5 0 0 1-1.5-1.5H6a2.5 2.5 0 0 0 2.5 2.5v-1Zm15 1a2.5 2.5 0 0 0 2.5-2.5h-1a1.5 1.5 0 0 1-1.5 1.5v1Zm2-4.653h-19v1h19v-1ZM20.385 25h-8.77v1h8.77v-1Zm-6.808.5v-4.385h-1V25.5h1Zm5.846 0v-4.385h-1V25.5h1Z" fill="#000"/></svg>
